svgs/sharp-thin/skull.svg

<svg xmlns="http://www.w3.org/2000/svg" viewBox="0 0 512 512"><!--! Font Awesome Pro 6.6.0 by @fontawesome - https://fontawesome.com License - https://fontawesome.com/license (Commercial License) Copyright 2024 Fonticons, Inc. --><path d="M406.8 385.8c54.9-38.5 89.2-97 89.2-161.8C496 111.1 390.6 16 256 16S16 111.1 16 224c0 64.8 34.3 123.3 89.2 161.8l6.8 4.8 0 8.3 0 97.1 72 0 0-48 0-8 16 0 0 8 0 48 48 0 0-48 0-8 16 0 0 8 0 48 48 0 0-48 0-8 16 0 0 8 0 48 72 0 0-97.1 0-8.3 6.8-4.8zM312 512l-48 0-16 0-48 0-16 0-72 0-16 0 0-16 0-97.1C37.5 357.8 0 294.7 0 224C0 100.3 114.6 0 256 0S512 100.3 512 224c0 70.7-37.5 133.8-96 174.9l0 97.1 0 16-16 0-72 0-16 0zM208 256a48 48 0 1 0 -96 0 48 48 0 1 0 96 0zM96 256a64 64 0 1 1 128 0A64 64 0 1 1 96 256zm256 48a48 48 0 1 0 0-96 48 48 0 1 0 0 96zm0-112a64 64 0 1 1 0 128 64 64 0 1 1 0-128z"/></svg>

<svg xmlns="http://www.w3.org/2000/svg" viewBox="0 0 512 512"><!--! Font Awesome Pro 6.5.2 by @fontawesome - https://fontawesome.com License - https://fontawesome.com/license (Commercial License) Copyright 2024 Fonticons, Inc. --><path d="M406.8 385.8c54.9-38.5 89.2-97 89.2-161.8C496 111.1 390.6 16 256 16S16 111.1 16 224c0 64.8 34.3 123.3 89.2 161.8l6.8 4.8v8.3V496h72V448v-8h16v8 48h48V448v-8h16v8 48h48V448v-8h16v8 48h72V398.9v-8.3l6.8-4.8zM312 512H264 248 200 184 112 96V496 398.9C37.5 357.8 0 294.7 0 224C0 100.3 114.6 0 256 0S512 100.3 512 224c0 70.7-37.5 133.8-96 174.9V496v16H400 328 312zM208 256a48 48 0 1 0 -96 0 48 48 0 1 0 96 0zM96 256a64 64 0 1 1 128 0A64 64 0 1 1 96 256zm256 48a48 48 0 1 0 0-96 48 48 0 1 0 0 96zm0-112a64 64 0 1 1 0 128 64 64 0 1 1 0-128z"/></svg>
